packages/foundations/assets/icons/functional/images/file/cloud_download_14.svg

<svg width="14" height="14" viewBox="0 0 14 14" fill="none" xmlns="http://www.w3.org/2000/svg">
<g clip-path="url(#clip0_185_886)">
<path fill-rule="evenodd" clip-rule="evenodd" d="M7.00002 6.29999C7.35901 6.29999 7.65488 6.57022 7.69531 6.91836L7.70002 6.99999L7.70021 10.2435C7.96789 10.0889 8.31602 10.126 8.545 10.355C8.79734 10.6074 8.81675 11.0044 8.60323 11.279L8.545 11.345L7.495 12.395L7.43784 12.4462L7.36452 12.4978L7.29628 12.5344L7.21852 12.5652L7.14053 12.5858L7.05269 12.598L7.00002 12.6L6.937 12.5972L6.8961 12.5923L6.81383 12.5749L6.74009 12.5501L6.66118 12.5127L6.58331 12.4626L6.54323 12.4304L6.50505 12.395L5.45505 11.345L5.39682 11.279C5.20109 11.0273 5.20109 10.6727 5.39682 10.421L5.45505 10.355L5.52099 10.2968C5.72233 10.1402 5.9895 10.1089 6.21719 10.2028L6.30052 10.2439L6.30002 6.99999L6.30473 6.91836C6.34517 6.57022 6.64104 6.29999 7.00002 6.29999ZM8.40002 1.39999C10.333 1.39999 11.9 2.967 11.9 4.89999L11.8909 5.14009L11.951 5.20734C12.2923 5.6162 12.5122 6.11645 12.5787 6.65366L12.5952 6.83403L12.6 6.99999C12.6 8.43732 11.5141 9.63043 10.0874 9.78425L9.94363 9.79614L9.79932 9.7962C9.44085 9.79635 9.14529 9.52663 9.10476 9.17901L9.10002 9.09719C9.10002 8.71094 9.41307 8.39778 9.79932 8.39763L9.88293 8.3976C10.585 8.35692 11.1444 7.79949 11.1961 7.10513L11.2 6.99999C11.2 6.62399 11.0517 6.27346 10.7939 6.01415L10.704 5.93119L10.3959 5.67058L10.467 5.27339C10.4889 5.15124 10.5 5.02649 10.5 4.89999C10.5 3.7402 9.55982 2.79999 8.40002 2.79999C7.68 2.79999 7.02497 3.1649 6.64233 3.75229L6.5695 3.87269L6.32766 4.30432L5.84007 4.22038C5.76154 4.20686 5.68138 4.19999 5.60002 4.19999C5.01783 4.19999 4.50523 4.5587 4.29699 5.08583L4.25947 5.19345L4.15078 5.55138L3.79282 5.65994C3.20808 5.83728 2.80002 6.37904 2.80002 6.99999C2.80002 7.73805 3.37114 8.34271 4.09554 8.39615L4.20037 8.39999C4.58678 8.39999 4.90002 8.71324 4.90002 9.09964C4.90002 9.45856 4.63003 9.75446 4.28199 9.79521L4.20002 9.79999C2.70049 9.79999 1.47627 8.62122 1.40345 7.13974L1.40002 6.99999C1.40002 5.95134 1.98154 5.01612 2.86748 4.53667L2.99609 4.47131L3.04782 4.44779L3.07112 4.3962C3.48577 3.52564 4.32789 2.9192 5.30252 2.81571L5.45747 2.80359L5.60002 2.79999L5.72774 2.64042C6.34602 1.90805 7.41398 1.44642 8.40002 1.39999Z" fill="#1A1C1F"/>
</g>
<defs>
<clipPath id="clip0_185_886">
<rect width="14" height="14" fill="white"/>
</clipPath>
</defs>
</svg>

<svg xmlns="http://www.w3.org/2000/svg" width="14" height="14" fill="none"><g clip-path="url(#a)"><path fill="#1A1C1F" fill-rule="evenodd" d="M7 6.3a.7.7 0 0 1 .695.618L7.7 7v3.243a.7.7 0 0 1 .903 1.036l-.058.066-1.05 1.05-.057.051-.073.052-.069.036-.077.031-.078.02-.088.013L7 12.6l-.063-.003-.04-.005-.083-.017-.074-.025-.079-.037-.078-.05-.04-.033-.038-.035-1.05-1.05-.058-.066a.7.7 0 0 1 0-.858l.058-.066.066-.058a.7.7 0 0 1 .696-.094l.084.04L6.3 7l.005-.082A.7.7 0 0 1 7 6.3m1.4-4.9a3.5 3.5 0 0 1 3.5 3.5l-.01.24.061.067c.341.41.561.91.628 1.447l.016.18L12.6 7a2.803 2.803 0 0 1-2.513 2.784l-.143.012h-.145a.7.7 0 0 1-.694-.617L9.1 9.097a.7.7 0 0 1 .7-.7h.083a1.4 1.4 0 0 0 1.313-1.292L11.2 7c0-.376-.148-.727-.406-.986l-.09-.083-.308-.26.071-.398q.033-.183.033-.373a2.1 2.1 0 0 0-3.858-1.148l-.073.12-.241.432-.488-.084a1.402 1.402 0 0 0-1.543.865l-.038.108-.108.358-.358.109a1.4 1.4 0 0 0 .303 2.736L4.2 8.4a.7.7 0 0 1 .082 1.395L4.2 9.8a2.8 2.8 0 0 1-2.797-2.66L1.4 7c0-1.049.582-1.984 1.467-2.463l.13-.066.05-.023.024-.052a2.8 2.8 0 0 1 2.232-1.58l.154-.012L5.6 2.8l.128-.16C6.346 1.908 7.414 1.446 8.4 1.4" clip-rule="evenodd"/></g><defs><clipPath id="a"><path fill="#fff" d="M0 0h14v14H0z"/></clipPath></defs></svg>
